icons/award_ribbon_fill.svg

<svg width="48" height="48" viewBox="0 0 48 48" fill="none" xmlns="http://www.w3.org/2000/svg">
<path d="M13.0001 20C13.0001 13.9249 17.925 9 24.0001 9C30.0753 9 35.0001 13.9249 35.0001 20C35.0001 26.0751 30.0753 31 24.0001 31C17.925 31 13.0001 26.0751 13.0001 20Z" fill="black"/>
<path fill-rule="evenodd" clip-rule="evenodd" d="M31.0001 34.391C36.328 31.7942 39.999 26.3258 39.999 20C39.999 11.1634 32.8356 4 23.999 4C15.1625 4 7.99902 11.1634 7.99902 20C7.99902 26.3267 11.6711 31.7957 17.0001 34.3921V43.0001C17.0001 43.3689 17.2031 43.7078 17.5283 43.8818C17.8534 44.0558 18.248 44.0367 18.5548 43.8322L24.0001 40.202L29.4454 43.8322C29.7523 44.0367 30.1468 44.0558 30.472 43.8818C30.7971 43.7078 31.0001 43.3689 31.0001 43.0001V34.391ZM23.999 34C31.731 34 37.999 27.732 37.999 20C37.999 12.268 31.731 6 23.999 6C16.267 6 9.99902 12.268 9.99902 20C9.99902 27.732 16.267 34 23.999 34Z" fill="black"/>
</svg>

<svg
  xmlns="http://www.w3.org/2000/svg"
  width="24"
  height="24"
  viewBox="0 0 24 24"
  fill="none"
  stroke="currentColor"
  stroke-width="2"
  stroke-linecap="round"
  stroke-linejoin="round"
>
  <path d="M13 20c0-6.075 4.925-11 11-11s11 4.925 11 11-4.925 11-11 11-11-4.925-11-11" />
  <path
    fill-rule="evenodd"
    d="M31 34.391C36.328 31.794 40 26.326 40 20c0-8.837-7.163-16-16-16s-16 7.163-16 16c0 6.327 3.672 11.796 9.001 14.392V43a1 1 0 0 0 1.555.832L24 40.202l5.445 3.63A1 1 0 0 0 31 43zM24 34c7.732 0 14-6.268 14-14s-6.268-14-14-14-14 6.268-14 14 6.268 14 14 14"
    clip-rule="evenodd"
  />
</svg>
